X: 38
T:Fisher's Hornpipe
M:4/4
L:1/8
Q:90
C:British Isles
R:Hornpipe
K:D
d-c|:"D"dAFD "G"GBAG-|"D"FDFD "G"GBAG-|"D"FDFD "G"GBAG-|"D"FDFD "A"EA-Bc
|!
"D"dAFD "G"GBAG-|"D"FDFD "G"GBAG|"D"F-GA(B "G"cd)ef|"A"ed-ce d2 cd:|!
"A"ecAc ecAc|"D"fdAd fdAd|"A"ecAc ecef|"G"edcB "D"A2 dc|!
"G"BABA BdcB|"D"ABAG FEDF|"A"ABcd efec|"D"dcde d2 cd:|]
